X:1
T:The Titanic
M:3/4
L:1/8
K:F
 A4 AA| GG F4| D2 F4| F2 A4| B2 c4| A2 G4| A A3 GG| F E3 DF| A4 z2|\
 D2 C4| c2 A4| G2 F4|

